X: 87
T: Pollonesse #87(2)
M: 3/4
L: 1/16
K: D
Q:120
D2DE F2FE F2D2| F2FG A2AF A2F2|A2FA d4f4|e2ef d4D4:|
|:f2ff f2ed e2e2|f2ff f2ed e2e2|f2ef g4 f4|e2ef d4D4:|
N: Jämför nr. 4

